!!!COM: Beethoven, Ludwig van
!!!CDT: 1770///-1827///
!!!ODT: 1825///-1826///
!!!OTL: String Quartet No. 13 in B-flat Major, Op. 130
!!!OPS: Op. 130
!!!OMV: Mvmt. 2
!!!OMD: Presto
!!!PDT: 1827///
!!!PPP: Vienna
!!!ODE: Dem F&uuml;rsten Nicolaus von Galitzin gewindmet
!!!MPD: 1826/03/21/
!!!MPD: 1827/04/22/
**kern	**dynam	**kern	**dynam	**kern	**dynam	**kern	**dynam
*staff4	*staff4	*staff3	*staff3	*staff2	*staff2	*staff1	*staff1
*Icello	*Icello	*Iviola	*Iviola	*Ivioln	*Ivioln	*Ivioln	*Ivioln
*>[A,A,B,B,C,C1,C,C2,D,D1,D,D2,E]	*>[A,A,B,B,C,C1,C,C2,D,D1,D,D2,E]	*>[A,A,B,B,C,C1,C,C2,D,D1,D,D2,E]	*>[A,A,B,B,C,C1,C,C2,D,D1,D,D2,E]	*>[A,A,B,B,C,C1,C,C2,D,D1,D,D2,E]	*>[A,A,B,B,C,C1,C,C2,D,D1,D,D2,E]	*>[A,A,B,B,C,C1,C,C2,D,D1,D,D2,E]	*>[A,A,B,B,C,C1,C,C2,D,D1,D,D2,E]
*>norep[A,B,C,C2,D,D2,E]	*>norep[A,B,C,C2,D,D2,E]	*>norep[A,B,C,C2,D,D2,E]	*>norep[A,B,C,C2,D,D2,E]	*>norep[A,B,C,C2,D,D2,E]	*>norep[A,B,C,C2,D,D2,E]	*>norep[A,B,C,C2,D,D2,E]	*>norep[A,B,C,C2,D,D2,E]
*>A	*>A	*>A	*>A	*>A	*>A	*>A	*>A
*clefF4	*clefF4	*clefC3	*clefC3	*clefG2	*clefG2	*clefG2	*clefG2
*k[b-e-a-d-g-]	*k[b-e-a-d-g-]	*k[b-e-a-d-g-]	*k[b-e-a-d-g-]	*k[b-e-a-d-g-]	*k[b-e-a-d-g-]	*k[b-e-a-d-g-]	*k[b-e-a-d-g-]
*b-:	*b-:	*b-:	*b-:	*b-:	*b-:	*b-:	*b-:
*M2/2	*M2/2	*M2/2	*M2/2	*M2/2	*M2/2	*M2/2	*M2/2
*MM360	*MM360	*MM360	*MM360	*MM360	*MM360	*MM360	*MM360
=1-	=1-	=1-	=1-	=1-	=1-	=1-	=1-
4BB-'/	pp	2r	pp	(2.d-/	pp	(4f/	pp
4B-'\	.	.	.	.	.	8e-/L	.
.	.	.	.	.	.	8f/J)	.
4r	.	[2B-/	.	.	.	4g-'/	.
4EE-'/	.	.	.	8e-/L	.	4r	.
.	.	.	.	8d-/J)	.	.	.
=2	=2	=2	=2	=2	=2	=2	=2
4A-'\	.	(2B-/]	.	(2.c/	.	(4e-/	.
4AA-'/	.	.	.	.	.	8d-/L	.
.	.	.	.	.	.	8e-/J)	.
4r	.	[2A-/)	.	.	.	4f'/	.
4DD-'/	.	.	.	8d-/L	.	4r	.
.	.	.	.	8c/J)	.	.	.
=3	=3	=3	=3	=3	=3	=3	=3
4GG-/	.	(2A-/]	.	(2.B-/	.	(4d-/	.
4G-\	.	.	.	.	.	8c/L	.
.	.	.	.	.	.	8d-/J)	.
4GG-/	.	4G-'/)	.	.	.	4e-'/	.
4GG-/	.	4E-'/	.	8c/L	.	4e-'/	.
.	.	.	.	8B-/J)	.	.	.
=4	=4	=4	=4	=4	=4	=4	=4
4FF/	.	4C/	.	4An/	.	4f/	.
4r	.	4r	.	4r	.	4r	.
2r	.	2r	.	2r	.	2r	.
=5	=5	=5	=5	=5	=5	=5	=5
4BB-/	.	2r	.	(2.d-/	.	(4f/	.
4B-\	.	.	.	.	.	8e-/L	.
.	.	.	.	.	.	8f/J)	.
4r	.	[2B-/	.	.	.	4g-'/	.
4EE-/	.	.	.	8e-/L	.	4r	.
.	.	.	.	8d-/J)	.	.	.
=6	=6	=6	=6	=6	=6	=6	=6
4A-\	.	(2B-/]	.	(2.c/	.	(4e-/	.
4AA-/	.	.	.	.	.	8d-/L	.
.	.	.	.	.	.	8e-/J)	.
4r	.	4A-/)	.	.	.	4f'/	.
4DD-/	.	[4F/	.	8d-/L	.	4r	.
.	.	.	.	8c/J)	.	.	.
=7	=7	=7	=7	=7	=7	=7	=7
4GG-/	.	4F'/]	.	4B-'/	.	(4d-/	.
4GG-/	.	4E-'/	.	4B-'/	.	8c/L	.
.	.	.	.	.	.	8d-/J)	.
4FF/	.	4C'/	.	4An'/	.	4e-'/	.
4FF/	.	4F'/	.	4A'/	.	4c'/	.
=8	=8	=8	=8	=8	=8	=8	=8
4BB-/	.	4F'/	.	4B-'/	.	4B-'/	.
4r	.	4r	.	4r	.	4r	.
2r	.	2r	.	2r	.	2r	.
=9:|!|:	=9:|!|:	=9:|!|:	=9:|!|:	=9:|!|:	=9:|!|:	=9:|!|:	=9:|!|:
*>B	*>B	*>B	*>B	*>B	*>B	*>B	*>B
4AA-/	.	([2a-\	.	(2f/	.	(4dd-\	.
4A-\	.	.	.	.	.	8cc\L	.
.	.	.	.	.	.	8dd-\J)	.
4r	.	4a-\]	.	4g-/)	.	4ee-'\	.
4A-\	.	4ee-\)	.	4r	.	4r	.
=10	=10	=10	=10	=10	=10	=10	=10
4AA-/	.	([2a-\	.	(2f/	.	(4dd-\	.
4A-\	.	.	.	.	.	4aa-\)	.
4r	.	4a-\]	.	4e-/	.	4gg-'\	.
4A-\	.	4ee-\)	.	4g-/)	.	4r	.
=11	=11	=11	=11	=11	=11	=11	=11
4AA-/	.	([2a-\	.	(2f/	.	(4dd-\	.
4A-\	.	.	.	.	.	8cc\L	.
.	.	.	.	.	.	8dd-\J)	.
4r	.	4a-\]	.	4g-/)	.	4ee-'\	.
4A-\	.	4ee-\)	.	4r	.	4r	.
=12	=12	=12	=12	=12	=12	=12	=12
4AA-/	.	([2a-\	.	(2f/	.	(4dd-\	.
4A-\	.	.	.	.	.	4aa-\)	.
4A-\	.	4a-\]	.	4e-/	.	4gg-'\	.
4AA-/	.	4ee-\)	.	4g-/)	.	4r	.
=13	=13	=13	=13	=13	=13	=13	=13
4BB-/	.	(2d-\	.	(2f/	.	(4b-\	.
4B-\	.	.	.	.	.	8an\L	.
.	.	.	.	.	.	8b-\J)	.
4r	.	4e-\)	.	4g-/)	.	4cc-'\	.
4B-\	.	4r	.	4r	.	4r	.
=14	=14	=14	=14	=14	=14	=14	=14
4BB-/	.	(2d-\	.	(2f/	.	(4b-\	.
4B-\	.	.	.	.	.	8an\L	.
.	.	.	.	.	.	8b-\J)	.
4r	.	4e-\)	.	4g-/)	.	4ccn'\	.
4B-\	.	4r	.	4r	.	4r	.
=15	=15	=15	=15	=15	=15	=15	=15
4BB-/	f	2d-\	f	(2f/	f	(4b-\	f
4B-\	.	.	.	.	.	8an\L	.
.	.	.	.	.	.	8b-\J)	.
4E-\	.	4G-'/	.	4g-'/)	.	4cc-'\	.
4E-\	.	4G-'/	.	4e-'/	.	4cc-'\	.
=16	=16	=16	=16	=16	=16	=16	=16
4F'\	.	4F/	.	(4d-/	.	(4b-\	.
4F'\	.	4f\	.	4c/)	.	4an/)	.
4BB-/	.	4f\	.	4d-'/	.	4b-'\	.
4r	.	4r	.	4r	.	4r	.
=17:|!|:	=17:|!|:	=17:|!|:	=17:|!|:	=17:|!|:	=17:|!|:	=17:|!|:	=17:|!|:
*>C	*>C	*>C	*>C	*>C	*>C	*>C	*>C
*k[b-e-]	*k[b-e-]	*k[b-e-]	*k[b-e-]	*k[b-e-]	*k[b-e-]	*k[b-e-]	*k[b-e-]
*M6/4	*M6/4	*M6/4	*M6/4	*M6/4	*M6/4	*M6/4	*M6/4
2r	f	2r	f	2r	f	4d'/	f
.	.	.	.	.	.	4f'/	.
4r	.	4r	.	4r	.	4b-'/	.
.	.	.	.	.	.	ccq/	.
4d\	.	4f\	.	4f/	.	4b-/	.
4c\	.	4e-\	.	4f/	.	4a/	.
4B-\	.	4d\	.	4f/	.	4b-/	.
=18	=18	=18	=18	=18	=18	=18	=18
*k[b-e-]	*k[b-e-]	*k[b-e-]	*k[b-e-]	*k[b-e-]	*k[b-e-]	*k[b-e-]	*k[b-e-]
2r	.	2r	.	2r	.	4f/	.
.	.	.	.	.	.	4a/	.
4r	.	4r	.	4r	.	4cc\	.
.	.	.	.	.	.	ddq/	.
4F\	.	4A/	.	4f/	.	4cc\	.
4F\	.	4G/	.	4f/	.	4bn\	.
4F\	.	4A/	.	4f/	.	4cc\	.
=19	=19	=19	=19	=19	=19	=19	=19
2r	.	2r	.	2r	.	4f/	.
.	.	.	.	.	.	4b-\	.
4r	.	4r	.	4r	.	4dd\	.
.	.	.	.	.	.	ee-q/	.
4BB-/	.	4F/	.	4d/	.	4dd\	.
4AA/	.	4F/	.	4c/	.	4cc\	.
4GG/	.	4F/	.	4B-/	.	4dd\	.
=20	=20	=20	=20	=20	=20	=20	=20
2r	.	2r	.	2r	.	4a/	.
.	.	.	.	.	.	4cc\	.
4r	.	4r	.	4r	.	4ff\	.
.	.	.	.	.	.	ggq/	.
4FF/	.	4A/	.	4c/	.	4ff\	.
4FF/	.	4A/	.	4c/	.	4een\	.
4FF/	.	4A/	.	4c/	.	4ff\	.
=21	=21	=21	=21	=21	=21	=21	=21
2r	.	2r	.	2r	.	4dd\	.
.	.	.	.	.	.	4ff\	.
4r	.	4r	.	4r	.	4bb-\	.
.	.	.	.	.	.	cccq/	.
4d\	.	4f\	.	4ff\	.	4bb-\	.
4c\	.	4f\	.	4ee-\	.	4aa\	.
4B-\	.	4f\	.	4dd\	.	4bb-\	.
=22	=22	=22	=22	=22	=22	=22	=22
2r	.	2r	.	2r	.	4ff\	.
.	.	.	.	.	.	4aa\	.
4r	.	4r	.	4r	.	4ccc\	.
.	.	.	.	.	.	dddq/	.
4A\	.	4f\	.	4cc\	.	4ccc\	.
4G\	.	4f\	.	4ff\	.	4bbn\	.
4F\	.	4f\	.	4ff\	.	4ccc\	.
=23	=23	=23	=23	=23	=23	=23	=23
2r	.	2r	.	2r	.	4ccc\	.
.	.	.	.	.	.	4ddd\	.
4r	.	4r	.	4r	.	4eee-\	.
4F\	.	4f\	.	4cc\	.	4fff\	.
4F\	.	4f\	.	4cc\	.	4ggg\	.
4F\	.	4f\	.	4cc\	.	4aaa\	.
=24	=24	=24	=24	=24	=24	=24	=24
*>C1	*>C1	*>C1	*>C1	*>C1	*>C1	*>C1	*>C1
4BB-/	.	4f\	.	4dd\	.	4bbb-\	.
4r	.	4r	.	4r	.	4r	.
4r	.	4r	.	4r	.	4r	.
4d\	.	4f\	.	4f/	.	2r	.
4c\	.	4e-\	.	4f/	.	.	.
4B-\	.	4d\	.	4f/	.	4r	.
=25:|!	=25:|!	=25:|!	=25:|!	=25:|!	=25:|!	=25:|!	=25:|!
*>C2	*>C2	*>C2	*>C2	*>C2	*>C2	*>C2	*>C2
4BB-/	.	4f\	.	4dd\	.	4bbb-\	.
4r	.	4r	.	4r	.	4r	.
4r	.	4r	.	4r	.	4r	.
4F\	.	4a\	.	4f/ 4cc/	.	2r	.
4F\	.	4a\	.	4f/ 4cc/	.	.	.
4F\	.	4a\	.	4f/ 4cc/	.	4r	.
=26!|:	=26!|:	=26!|:	=26!|:	=26!|:	=26!|:	=26!|:	=26!|:
*>D	*>D	*>D	*>D	*>D	*>D	*>D	*>D
2r	.	2r	.	2r	.	4cc\	.
.	.	.	.	.	.	4ff\	.
4r	.	4r	.	4r	.	4aa\	.
.	.	.	.	.	.	bb-q/	.
4F\	.	4a\	.	4f/ 4cc/	.	4aa\	.
4F\	.	4a\	.	4f/ 4cc/	.	4gg\	.
4F\	.	4a\	.	4f/ 4cc/	.	4aa\	.
=27	=27	=27	=27	=27	=27	=27	=27
2r	.	2r	.	2r	.	4cc\	.
.	.	.	.	.	.	4een\	.
4r	.	4r	.	4r	.	4gg\	.
.	.	.	.	.	.	aaq/	.
4c\	.	4en\	.	4cc\	.	4gg\	.
4c\	.	4e\	.	4cc\	.	4ff#\	.
4c\	.	4e\	.	4cc\	.	4gg\	.
=28	=28	=28	=28	=28	=28	=28	=28
2r	.	2r	.	2r	.	4cc\	.
.	.	.	.	.	.	4een\	.
4r	.	4r	.	4r	.	4gg\	.
.	.	.	.	.	.	aaq/	.
4c\	.	4en\	.	4g/	.	4gg\	.
4c\	.	4e\	.	4g/	.	4ff#\	.
4c\	.	4e\	.	4g/	.	4gg\	.
=29	=29	=29	=29	=29	=29	=29	=29
2r	.	2r	.	2r	.	4bn\	.
.	.	.	.	.	.	4dd\	.
4r	.	4r	.	4r	.	4gg\	.
.	.	.	.	.	.	aaq/	.
4G\	.	4d\	.	4bn\	.	4gg\	.
4G\	.	4d\	.	4b\	.	4ff#\	.
4G\	.	4d\	.	4b\	.	4gg\	.
=30	=30	=30	=30	=30	=30	=30	=30
2r	.	2r	.	2r	.	4bn\	.
.	.	.	.	.	.	4dd\	.
4r	.	4r	.	4r	.	4gg\	.
.	.	.	.	.	.	aaq/	.
4G\	.	4d\	.	4bn\	.	4gg\	.
4G\	.	4d\	.	4b\	.	4ff#\	.
4G\	.	4d\	.	4b\	.	4gg\	.
=31	=31	=31	=31	=31	=31	=31	=31
2r	.	2r	.	2r	.	4a/	.
.	.	.	.	.	.	4dd\	.
4r	.	4r	.	4r	.	4ffn\	.
.	.	.	.	.	.	ggq/	.
4A\	.	4d\	.	4a/	.	4ff\	.
4A\	.	4d\	.	4a/	.	4een\	.
4A\	.	4d\	.	4a/	.	4ff\	.
=32	=32	=32	=32	=32	=32	=32	=32
4A\	f	4d\	f	4a/	f	4a/	f
4r	.	4r	.	4r	.	4dd\	.
4r	.	4r	.	4r	.	4ffn\	.
4A\	.	4c#\	.	4a/	.	4g/	.
4r	.	4r	.	4r	.	4cc#\	.
4r	.	4r	.	4r	.	4een\	.
=33	=33	=33	=33	=33	=33	=33	=33
2r	pp	2r	pp	2r	pp	4f/	pp
.	.	.	.	.	.	4a/	.
4r	.	4r	.	4r	.	4dd\	.
.	.	.	.	.	.	eenq/	.
4DD/	.	4D/	.	4d/	.	4dd\	.
4DD/	.	4D/	.	4d/	.	4cc#\	.
4DD/	.	4D/	.	4d/	.	4dd\	.
=34	=34	=34	=34	=34	=34	=34	=34
2r	pp	2r	pp	2r	pp	4g/	pp
.	.	.	.	.	.	4b-\	.
4r	.	4r	.	4r	.	4dd\	.
.	.	.	.	.	.	eenq/	.
4DD/	.	4G/	.	4B-/	.	4dd\	.
4DD/	.	4G/	.	4B-/	.	4cc#\	.
4DD/	.	4G/	.	4B-/	.	4dd\	.
=35	=35	=35	=35	=35	=35	=35	=35
2r	.	2r	.	2r	.	4f/	.
.	.	.	.	.	.	4a/	.
4r	.	4r	.	4r	.	4dd\	.
.	.	.	.	.	.	eenq/	.
4DD/	.	4F/	.	4A/	.	4dd\	.
4DD/	.	4F/	.	4A/	.	4cc#\	.
4DD/	.	4F/	.	4A/	.	4dd\	.
=36	=36	=36	=36	=36	=36	=36	=36
2r	.	2r	.	2r	.	4f/	.
.	.	.	.	.	.	4a/	.
4r	.	4r	.	4r	.	4dd\	.
4AA/	.	4C#/	.	4A/	.	4g/	.
4A\	.	4A/	.	4c#/	.	4cc#\	.
4A\	.	4A/	.	4c#/	.	4een\	.
=37	=37	=37	=37	=37	=37	=37	=37
2r	.	2r	.	2r	.	4a/	.
.	.	.	.	.	.	4dd\	.
4r	.	4r	.	4r	.	4ff\	.
.	.	.	.	.	.	ggq/	.
4D\	.	4A/	.	4d/	.	4ff\	.
4D\	.	4d\	.	4a/	.	4een\	.
4D\	.	4d\	.	4a/	.	4ff\	.
=38	=38	=38	=38	=38	=38	=38	=38
2r	.	2r	.	2r	.	4bn\	.
.	.	.	.	.	.	4dd\	.
4r	.	4r	.	4r	.	4gg\	.
.	.	.	.	.	.	aaq/	.
4GG/	.	4d\	.	4bn\	.	4gg\	.
4GG/	.	4d\	.	4b\	.	4ff#\	.
4GG/	.	4d\	.	4b\	.	4gg\	.
=39	=39	=39	=39	=39	=39	=39	=39
2r	.	2r	.	2r	.	4cc\	.
.	.	.	.	.	.	4een\	.
4r	.	4r	.	4r	.	4gg\	.
.	.	.	.	.	.	aaq/	.
4C/	.	4en\	.	4cc\	.	4gg\	.
4C/	.	4e\	.	4cc\	.	4ff#\	.
4C/	.	4e\	.	4cc\	.	4gg\	.
=40	=40	=40	=40	=40	=40	=40	=40
2r	.	2r	.	2r	.	4cc\	.
.	.	.	.	.	.	4een\	.
4r	.	4r	.	4r	.	4gg\	.
4FF/	.	4e-\	.	4cc\	.	4cc\	.
4FF/	.	4e-\	.	4cc\	.	4ee-\	.
4FF/	.	4e-\	.	4cc\	.	4aa\	.
=41	=41	=41	=41	=41	=41	=41	=41
2r	f	2r	f	2r	f	4dd\	f
.	.	.	.	.	.	4ff\	.
4r	.	4r	.	4r	.	4bb-\	.
.	.	.	.	.	.	cccq/	.
4BB-/	.	4d\	.	4f/	.	4bb-\	.
4BB-/	.	4d\	.	4f/	.	4aa\	.
4BB-/	.	4d\	.	4f/	.	4bb-\	.
=42	=42	=42	=42	=42	=42	=42	=42
2r	.	2r	.	2r	.	4ff\	.
.	.	.	.	.	.	4aa\	.
4r	.	4r	.	4r	.	4ccc\	.
.	.	.	.	.	.	dddq/	.
4FF/	.	4A/	.	4f/	.	4ccc\	.
4FF/	.	4A/	.	4f/	.	4bbn\	.
4FF/	.	4A/	.	4f/	.	4ccc\	.
=43	=43	=43	=43	=43	=43	=43	=43
2r	.	2r	.	2r	.	4ff\	.
.	.	.	.	.	.	4bb-\	.
4r	.	4r	.	4r	.	4ddd\	.
.	.	.	.	.	.	eee-q/	.
4B-\	.	4d\	.	4f/	.	4ddd\	.
4B-\	.	4d\	.	4f/	.	4ccc\	.
4B-\	.	4d\	.	4f/	.	4ddd\	.
=44	=44	=44	=44	=44	=44	=44	=44
2r	.	2r	.	2r	.	4aa\	.
.	.	.	.	.	.	4ccc\	.
4r	.	4r	.	4r	.	4fff\	.
.	.	.	.	.	.	gggq/	.
4F\	.	4A/	.	4f/	.	4fff\	.
4F\	.	4A/	.	4f/	.	4eeen\	.
4F\	.	4A/	.	4f/	.	4fff\	.
=45	=45	=45	=45	=45	=45	=45	=45
2r	f	2r	f	2r	f	4dd\	f
.	.	.	.	.	.	4ff\	.
4r	.	4r	.	4r	.	4bb-\	.
.	.	.	.	.	.	cccq/	.
4B-\	.	4d\	.	4f/	.	4bb-\	.
4B-\	.	4d\	.	4f/	.	4aa\	.
4B-\	.	4d\	.	4f/	.	4bb-\	.
=46	=46	=46	=46	=46	=46	=46	=46
2r	.	2r	.	2r	.	4ff\	.
.	.	.	.	.	.	4aa\	.
4r	.	4r	.	4r	.	4ccc\	.
.	.	.	.	.	.	dddq/	.
4F\	.	4f\	.	4a/	.	4ccc\	.
4F\	.	4f\	.	4a/	.	4bbn\	.
4F\	.	4f\	.	4a/	.	4ccc\	.
=47	=47	=47	=47	=47	=47	=47	=47
2r	ff	2r	ff	2r	ff	4ccc\	ff
.	.	.	.	.	.	4ddd\	.
4r	.	4r	.	4r	.	4eee-\	.
4F\	.	4c\	.	4a\ 4ff\	.	4fff\	.
4F\	.	4c\	.	4a\ 4ff\	.	4ggg\	.
4F\	.	4c\	.	4a\ 4ff\	.	4aaa\	.
=48	=48	=48	=48	=48	=48	=48	=48
*>D1	*>D1	*>D1	*>D1	*>D1	*>D1	*>D1	*>D1
4B-\	.	4d\	.	4b-\ 4ff\	.	4bbb-\	.
4r	.	4r	.	4r	.	4r	.
4r	.	4r	.	4r	.	4r	.
4f\	.	4a\	.	4cc\	.	2r	.
4f\	.	4a\	.	4cc\	.	.	.
4f\	.	4a\	.	4cc\	.	4r	.
=49:|!	=49:|!	=49:|!	=49:|!	=49:|!	=49:|!	=49:|!	=49:|!
*>D2	*>D2	*>D2	*>D2	*>D2	*>D2	*>D2	*>D2
4BB-/	.	4d\	.	4b-\ 4ff\	.	4bbb-\	.
4r	.	4r	.	4r	.	4r	.
4r	.	4r	.	4r	.	4r	.
4f\	.	4cc\	.	4ee-\	.	2r	.
4f\	.	4cc\	.	4ee-\	.	.	.
4f\	.	4cc\	.	4ee-\	.	4r	.
=50	=50	=50	=50	=50	=50	=50	=50
*>E	*>E	*>E	*>E	*>E	*>E	*>E	*>E
2r	.	2r	.	2r	.	4cc\	.
.	.	.	.	.	.	4dd\	.
4r	.	4r	.	4r	.	4ee-\	.
4f\	.	4cc\	.	4ee-\	.	4ff\	.
4f\	.	4cc\	.	4ee-\	.	4gg\	.
4f\	.	4cc\	.	4ee-\	.	4aa\	.
=51	=51	=51	=51	=51	=51	=51	=51
4D\	p	4D/	p	4d/	p	4bb-\	p
4E-\	.	4E-/	.	4e-/	.	4r	.
4F\	.	4F/	.	4f/	.	4r	.
4G\	.	4G/	.	4g/	.	2r	.
4A\	.	4A/	.	4a/	.	.	.
4B-\	.	4B-/	.	4b-\	.	4r	.
=52	=52	=52	=52	=52	=52	=52	=52
2.C'/	p	2.C'/	p	2.c'/	p	2.c'/	p
2.D'/	.	2.D'/	.	2.d'/	.	2.d'/	.
=53	=53	=53	=53	=53	=53	=53	=53
2.EE-'/	.	2.E-'/	.	2.e-'/	.	2.e-'/	.
2.FF'/	.	2.F'/	.	2.f'/	.	2.f'/	.
=54	=54	=54	=54	=54	=54	=54	=54
2.GG'/	.	2.G'/	.	2.g'/	.	2.g'/	.
2.AA'/	.	2.A'/	.	2.a'/	.	2.a'/	.
=55	=55	=55	=55	=55	=55	=55	=55
2.BB-'/	.	2.B-'/	.	2.b-'\	.	2.b-'\	.
2.C'/	.	2.c'/	.	2.c'/	.	[2.cc\	.
=56	=56	=56	=56	=56	=56	=56	=56
1.r	.	1.r	.	1.r	.	2.cc\_	.
.	.	.	.	.	.	2.cc\_	.
=57	=57	=57	=57	=57	=57	=57	=57
1.r	.	1.r	.	1.r	.	4cc\]	.
.	.	.	.	.	.	(4bn\	.
.	.	.	.	.	.	4b-\	.
.	.	.	.	.	.	4a/	.
.	.	.	.	.	.	4a-/	.
.	.	.	.	.	.	8g\L	.
.	.	.	.	.	.	8g-\J)	.
=58	=58	=58	=58	=58	=58	=58	=58
*M2/2	*M2/2	*M2/2	*M2/2	*M2/2	*M2/2	*M2/2	*M2/2
4FF'/	f	4F'/	f	4f'/	f	4f'/	f
4FF'/	.	4F'/	.	4f'/	.	4f'/	.
4GG-'/	.	4G-'/	.	4g-'/	.	4g-'/	.
4r	.	4r	.	4r	.	4r	.
=59	=59	=59	=59	=59	=59	=59	=59
1r	.	1r	.	1r	.	1r	.
=60	=60	=60	=60	=60	=60	=60	=60
*M6/4	*M6/4	*M6/4	*M6/4	*M6/4	*M6/4	*M6/4	*M6/4
1.r	.	1.r	.	1.r	.	[2.ee-\	.
.	.	.	.	.	.	2.ee-\_	.
=61	=61	=61	=61	=61	=61	=61	=61
1.r	.	1.r	.	1.r	.	4ee-\]	.
.	.	.	.	.	.	(4dd\	.
.	.	.	.	.	.	8cc\L	.
.	.	.	.	.	.	8cc-\J	.
.	.	.	.	.	.	8b-\L	.
.	.	.	.	.	.	8a\	.
.	.	.	.	.	.	8a-\	.
.	.	.	.	.	.	8g\J	.
.	.	.	.	.	.	4g-/)	.
=62	=62	=62	=62	=62	=62	=62	=62
*M2/2	*M2/2	*M2/2	*M2/2	*M2/2	*M2/2	*M2/2	*M2/2
4FF'/	f	4F'/	f	4f'/	f	4f'/	f
4FF'/	.	4F'/	.	4f'/	.	4f'/	.
4GG-'/	.	4G-'/	.	4g-'/	.	4g-'/	.
4r	.	4r	.	4r	.	4r	.
=63	=63	=63	=63	=63	=63	=63	=63
1r	.	1r	.	1r	.	1r	.
=64	=64	=64	=64	=64	=64	=64	=64
*M6/4	*M6/4	*M6/4	*M6/4	*M6/4	*M6/4	*M6/4	*M6/4
1.r	.	1.r	.	1.r	.	[2.gg-\	.
.	.	.	.	.	.	2.gg-\_	.
=65	=65	=65	=65	=65	=65	=65	=65
1.r	.	1.r	.	1.r	.	8gg-\L]	.
.	.	.	.	.	.	(8ff\	.
.	.	.	.	.	.	8ee-\	.
.	.	.	.	.	.	8dd-\	.
.	.	.	.	.	.	8cc\	.
.	.	.	.	.	.	8cc-\J	.
.	.	.	.	.	.	8b-\L	.
.	.	.	.	.	.	8a\	.
.	.	.	.	.	.	8a-\	.
.	.	.	.	.	.	8gn\J	.
.	.	.	.	.	.	4g-/)	.
=66	=66	=66	=66	=66	=66	=66	=66
*k[b-e-a-d-g-]	*k[b-e-a-d-g-]	*k[b-e-a-d-g-]	*k[b-e-a-d-g-]	*k[b-e-a-d-g-]	*k[b-e-a-d-g-]	*k[b-e-a-d-g-]	*k[b-e-a-d-g-]
*M2/2	*M2/2	*M2/2	*M2/2	*M2/2	*M2/2	*M2/2	*M2/2
4B-'\	pp	(2F/	pp	(2.d-/	pp	(4f/	pp
4BB-'/	.	.	.	.	.	8e-/L	.
.	.	.	.	.	.	8f/J)	.
4r	.	[2E-/)	.	.	.	4g-'/	.
4EE-'/	.	.	.	8e-/L	.	4r	.
.	.	.	.	8d-/J)	.	.	.
=67	=67	=67	=67	=67	=67	=67	=67
*k[b-e-a-d-g-]	*k[b-e-a-d-g-]	*k[b-e-a-d-g-]	*k[b-e-a-d-g-]	*k[b-e-a-d-g-]	*k[b-e-a-d-g-]	*k[b-e-a-d-g-]	*k[b-e-a-d-g-]
4AA-'/	.	(2E-/]	.	(2.c/	.	(4e-/	.
4A-'\	.	.	.	.	.	8d-/L	.
.	.	.	.	.	.	8e-/J)	.
4r	.	2D-/)	.	.	.	4f'/	.
4D-'\	.	.	.	8d-/L	.	4r	.
.	.	.	.	8c/J)	.	.	.
=68	=68	=68	=68	=68	=68	=68	=68
4G-\	.	4D-/	.	4B-'/	.	(4d-/	.
4GG-/	.	4D-/	.	4B-'/	.	8c/L	.
.	.	.	.	.	.	8d-/J)	.
4GG-/	.	4C/	.	4B-'/	.	4e-'/	.
4GG-/	.	4C/	.	4B-'/	.	4e-'/	.
=69	=69	=69	=69	=69	=69	=69	=69
4FF/	.	4C/	.	4An/	.	4f/	.
4r	.	4r	.	(8c/L	.	4r	.
.	.	.	.	8d-/J)	.	.	.
2r	.	2r	.	4e-'/	.	2r	.
.	.	.	.	4c'/	.	.	.
=70	=70	=70	=70	=70	=70	=70	=70
4B-\	.	(2F/	.	1d-	.	(4f/	.
4BB-/	.	.	.	.	.	8e-/L	.
.	.	.	.	.	.	8f/J)	.
4r	.	[2E-/)	.	.	.	4g-'/	.
4EE-/	.	.	.	.	.	4r	.
=71	=71	=71	=71	=71	=71	=71	=71
4AA-/	.	(2E-/]	.	(2.c/	.	(4e-/	.
4A-\	.	.	.	.	.	8d-/L	.
.	.	.	.	.	.	8e-/J)	.
4r	.	[2D-/)	.	.	.	4f'/	.
4D-\	.	.	.	8d-/L	.	4r	.
.	.	.	.	8c/J)	.	.	.
=72	=72	=72	=72	=72	=72	=72	=72
4G-\	.	4D-/]	.	4B-'/	.	(4d-/	.
4GG-/	.	4E-'/	.	4B-'/	.	8c/L	.
.	.	.	.	.	.	8d-/J)	.
4FF/	.	4E-'/	.	4An'/	.	4e-'/	.
4FF/	.	4F'/	.	4A'/	.	4c'/	.
=73	=73	=73	=73	=73	=73	=73	=73
4BB-/	.	4F'/	.	4B-'/	.	4B-'/	.
*clefC4	*clefC4	*	*	*	*	*	*
8c\L	.	8C/L	.	4r	.	4r	.
8d-\J	.	8D-/J	.	.	.	.	.
4e-'\	.	4E-'/	.	2r	.	2r	.
4c'\	.	4C'/	.	.	.	.	.
=74	=74	=74	=74	=74	=74	=74	=74
*clefF4	*clefF4	*	*	*	*	*	*
*	*	*	*	*	*	*^	*
4B-'\	pp	4d-'\	pp	2d-/	pp	(4.f/	16f/LL	pp
.	.	.	.	.	.	.	16g-/	.
.	.	.	.	.	.	.	16f/	.
.	.	.	.	.	.	.	16g-/	.
4BB-'/	.	4D-'/	.	.	.	.	16f/	.
.	.	.	.	.	.	.	16g-/JJ	.
*	*	*	*	*	*	*v	*v	*
.	.	.	.	.	.	16e-/LL	.
.	.	.	.	.	.	16f/JJ)	.
4r	.	4r	.	4ee-'\	.	4g-'/	.
4EE-'/	.	4G-'/	.	4e-'/	.	4gg-'\	.
=75	=75	=75	=75	=75	=75	=75	=75
*	*	*	*	*	*	*^	*
4AA-/	.	4c\	.	2c/	.	(4.e-/	16e-/LL	.
.	.	.	.	.	.	.	16f/	.
.	.	.	.	.	.	.	16e-/	.
.	.	.	.	.	.	.	16f/	.
4A-\	.	4C/	.	.	.	.	16e-/	.
.	.	.	.	.	.	.	16f/JJ	.
*	*	*	*	*	*	*v	*v	*
.	.	.	.	.	.	16d-/LL	.
.	.	.	.	.	.	16e-/JJ)	.
4r	.	4r	.	4dd-'\	.	4f'/	.
4D-\	.	4F/	.	4d-'/	.	4ff'\	.
=76	=76	=76	=76	=76	=76	=76	=76
*	*	*	*	*	*	*^	*
4G-\	.	4b-\	.	2B-/	.	(4.d-/	16d-/LL	.
.	.	.	.	.	.	.	16e-/	.
.	.	.	.	.	.	.	16d-/	.
.	.	.	.	.	.	.	16e-/	.
4GG-/	.	4B-/	.	.	.	.	16d-/	.
.	.	.	.	.	.	.	16e-/JJ	.
*	*	*	*	*	*	*v	*v	*
.	.	.	.	.	.	16c/LL	.
.	.	.	.	.	.	16d-/JJ)	.
4r	.	4r	.	4b-'/	.	4e-'/	.
4GG-/	.	4B-/	.	4B-'/	.	4ee-'\	.
=77	=77	=77	=77	=77	=77	=77	=77
4F\	.	4an\	.	4An/	.	4f/	.
4FF/	.	4An/	.	4an/	.	4ff\	.
4f\	.	2r	.	4ff\	.	2r	.
4F\	.	.	.	4f/	.	.	.
=78	=78	=78	=78	=78	=78	=78	=78
*	*	*	*	*	*	*^	*
4B-\	.	(2.d-\	.	4dd-\	.	(4.f/	16f/LL	.
.	.	.	.	.	.	.	16g-/	.
.	.	.	.	.	.	.	16f/	.
.	.	.	.	.	.	.	16g-/	.
4BB-/	.	.	.	4d-/	.	.	16f/	.
.	.	.	.	.	.	.	16g-/JJ	.
*	*	*	*	*	*	*v	*v	*
.	.	.	.	.	.	16e-/LL	.
.	.	.	.	.	.	16f/JJ)	.
4r	.	.	.	4r	.	4g-'/	.
4EE-/	.	8e-\L	.	4g-/	.	4gg-'\	.
.	.	8d-\J)	.	.	.	.	.
=79	=79	=79	=79	=79	=79	=79	=79
*	*	*	*	*	*	*^	*
4AA-/	.	(2.c\	.	4cc\	.	(4.e-/	16e-/LL	.
.	.	.	.	.	.	.	16f/	.
.	.	.	.	.	.	.	16e-/	.
.	.	.	.	.	.	.	16f/	.
4A-\	.	.	.	4c/	.	.	16e-/	.
.	.	.	.	.	.	.	16f/JJ	.
*	*	*	*	*	*	*v	*v	*
.	.	.	.	.	.	16d-/LL	.
.	.	.	.	.	.	16e-/JJ)	.
4r	.	.	.	4r	.	4f'/	.
4D-\	.	8d-\L	.	4f/	.	4ff'\	.
.	.	8c\J)	.	.	.	.	.
=80	=80	=80	=80	=80	=80	=80	=80
*	*	*	*	*	*	*^	*
4G-\	.	4B-/	.	4b-\	.	(4.d-/	16d-/LL	.
.	.	.	.	.	.	.	16e-/	.
.	.	.	.	.	.	.	16d-/	.
.	.	.	.	.	.	.	16e-/	.
4GG-/	.	4B-/	.	4b-\	.	.	16d-/	.
.	.	.	.	.	.	.	16e-/JJ	.
*	*	*	*	*	*	*v	*v	*
.	.	.	.	.	.	16c/LL	.
.	.	.	.	.	.	16d-/JJ)	.
4FF/	.	4An'/	.	4cc\	.	4e-'/	.
4FF/	.	4A'/	.	4an/	.	4c'/	.
=81	=81	=81	=81	=81	=81	=81	=81
4BB-/	.	4B-'/	.	4b-\	.	4B-'/	.
(8D-\L	.	(8d-\L	.	4r	.	4r	.
8E-\J)	.	8e-\J)	.	.	.	.	.
4F'\	.	4f'\	.	2r	.	2r	.
4D-'\	.	4d-'\	.	.	.	.	.
=82	=82	=82	=82	=82	=82	=82	=82
4AA-/	.	(2.a-\	.	(2f/	.	(4dd-\	.
4A-\	.	.	.	.	.	8cc\L	.
.	.	.	.	.	.	8dd-\J)	.
4r	.	.	.	4g-/)	.	4ee-'\	.
4A-\	.	4ee-\)	.	4r	.	4r	.
=83	=83	=83	=83	=83	=83	=83	=83
4AA-/	.	(2f\	.	(2.a-/	.	(4dd-\	.
4A-\	.	.	.	.	.	4aa-\)	.
4r	.	4e-\)	.	.	.	4gg-'\	.
4A-\	.	4r	.	4gg-\)	.	4r	.
=84	=84	=84	=84	=84	=84	=84	=84
4AA-/	.	(2.a-\	.	(2f/	.	(4dd-\	.
4A-\	.	.	.	.	.	8cc\L	.
.	.	.	.	.	.	8dd-\J)	.
4r	.	.	.	4g-/)	.	4ee-'\	.
4A-\	.	4ee-\)	.	4r	.	4r	.
=85	=85	=85	=85	=85	=85	=85	=85
4AA-/	.	(2f\	.	(2.a-/	.	(4dd-\	.
4A-\	.	.	.	.	.	4aa-\)	.
4r	.	4e-\)	.	.	.	4gg-'\	.
4AA-/	.	4r	.	4gg-\)	.	4r	.
=86	=86	=86	=86	=86	=86	=86	=86
4BB-/	.	(2d-\	.	(2f/	.	(4b-\	.
4B-\	.	.	.	.	.	8an\L	.
.	.	.	.	.	.	8b-\J)	.
4r	.	4e-\)	.	4g-/)	.	4cc-'\	.
4B-\	.	4r	.	4r	.	4r	.
=87	=87	=87	=87	=87	=87	=87	=87
4BB-/	.	(2d-\	.	(2f/	.	(4b-\	.
4B-\	.	.	.	.	.	8an\L	.
.	.	.	.	.	.	8b-\J)	.
4r	.	4e-\)	.	4g-/)	.	4ccn'\	.
4B-\	.	4r	.	4r	.	4r	.
=88	=88	=88	=88	=88	=88	=88	=88
4BB-/	.	2d-\	.	(2f/	.	(4b-\	.
4B-\	.	.	.	.	.	8an\L	.
.	.	.	.	.	.	8b-\J)	.
4E-\	.	4G-'/	.	4g-'/)	.	4cc-'\	.
4E-\	.	4G-'/	.	4e-'/	.	4cc-'\	.
=89	=89	=89	=89	=89	=89	=89	=89
4F\	.	4F/	.	(4d-/	.	(4b-\	.
4F\	.	4f\	.	4c/)	.	4an\)	.
4BB-/	.	4f\	.	4d-'/	.	4b-'\	.
4r	.	4r	.	4r	.	4r	.
=90	=90	=90	=90	=90	=90	=90	=90
*	*	*	*	*	*	*^	*
4AA-/	p	(2d-\	p	(2f/	p	(4.dd-\	16dd-\LL	p
.	.	.	.	.	.	.	16ee-\	.
.	.	.	.	.	.	.	16dd-\	.
.	.	.	.	.	.	.	16ee-\	.
4A-\	.	.	.	.	.	.	16dd-\	.
.	.	.	.	.	.	.	16ee-\JJ	.
*	*	*	*	*	*	*v	*v	*
.	.	.	.	.	.	16cc\LL	.
.	.	.	.	.	.	16dd-\JJ)	.
4r	.	4c\	.	4g-/	.	4ee-'\	.
4A-\	.	4g-\)	.	4ee-\)	.	4eee-'\	.
=91	=91	=91	=91	=91	=91	=91	=91
*	*	*	*	*	*	*^	*
4AA-/	.	(2d-\	.	(2f/	.	(4dd-\	32dd-\LLL	.
.	.	.	.	.	.	.	32ee-\	.
.	.	.	.	.	.	.	32dd-\	.
.	.	.	.	.	.	.	32ee-\	.
.	.	.	.	.	.	.	32dd-\	.
.	.	.	.	.	.	.	32ee-\	.
.	.	.	.	.	.	.	32cc\	.
.	.	.	.	.	.	.	32dd-\JJJ	.
*	*	*	*	*	*	*v	*v	*
4A-\	.	.	.	.	.	4aa-\)	.
4r	.	4e-\	.	4cc\	.	4gg-'\	.
4A-\	.	4cc\)	.	4ee-\)	.	4ggg-'\	.
=92	=92	=92	=92	=92	=92	=92	=92
*	*	*	*	*	*	*^	*
4AA-/	.	(2d-\	.	(2f/	.	(4dd-\	32dd-\LLL	.
.	.	.	.	.	.	.	32ee-\	.
.	.	.	.	.	.	.	32dd-\	.
.	.	.	.	.	.	.	32ee-\	.
.	.	.	.	.	.	.	32dd-\	.
.	.	.	.	.	.	.	32ee-\	.
.	.	.	.	.	.	.	32cc\	.
.	.	.	.	.	.	.	32dd-\JJJ	.
*	*	*	*	*	*	*v	*v	*
4A-\	.	.	.	.	.	8cc\L	.
.	.	.	.	.	.	8dd-\J)	.
4r	.	4c\	.	4g-/	.	4ee-'\	.
4A-\	.	4g-\)	.	4ee-\)	.	4eee-'\	.
=93	=93	=93	=93	=93	=93	=93	=93
*	*	*	*	*	*	*^	*
4AA-/	.	(2d-\	.	(2f/	.	(4dd-\	32dd-\LLL	.
.	.	.	.	.	.	.	32ee-\	.
.	.	.	.	.	.	.	32dd-\	.
.	.	.	.	.	.	.	32ee-\	.
.	.	.	.	.	.	.	32dd-\	.
.	.	.	.	.	.	.	32ee-\	.
.	.	.	.	.	.	.	32cc\	.
.	.	.	.	.	.	.	32dd-\JJJ	.
*	*	*	*	*	*	*v	*v	*
4A-\	.	.	.	.	.	4aa-\)	.
4r	.	4e-\	.	4cc\	.	4gg-'\	.
4AA-/	.	4cc\)	.	4ee-\)	.	4ggg-'\	.
=94	=94	=94	=94	=94	=94	=94	=94
*	*	*	*	*	*	*^	*
4BB-/	.	(2d-\	.	(2f/	.	(4b-\	32b-/LLL	.
.	.	.	.	.	.	.	32bn/	.
.	.	.	.	.	.	.	32b-/	.
.	.	.	.	.	.	.	32bn/	.
.	.	.	.	.	.	.	32b-/	.
.	.	.	.	.	.	.	32bn/	.
.	.	.	.	.	.	.	32an/	.
.	.	.	.	.	.	.	32b-/JJJ	.
*	*	*	*	*	*	*v	*v	*
4B-\	.	.	.	.	.	8an\L	.
.	.	.	.	.	.	8b-\J)	.
4r	.	4e-\)	.	4g-/)	.	4cc-'\	.
4B-\	.	4r	.	4r	.	4r	.
=95	=95	=95	=95	=95	=95	=95	=95
*	*	*	*	*	*	*^	*
4BB-/	.	(2d-\	.	(2f/	.	(4b-\	32b-\LLL	.
.	.	.	.	.	.	.	32cc\	.
.	.	.	.	.	.	.	32b-\	.
.	.	.	.	.	.	.	32cc\	.
.	.	.	.	.	.	.	32b-\	.
.	.	.	.	.	.	.	32cc\	.
.	.	.	.	.	.	.	32an\	.
.	.	.	.	.	.	.	32b-\JJJ	.
*	*	*	*	*	*	*v	*v	*
4B-\	.	.	.	.	.	8an\L	.
.	.	.	.	.	.	8b-\J)	.
4r	.	4e-\)	.	4g-/)	.	4ccn'\	.
4B-\	.	4r	.	4r	.	4r	.
=96	=96	=96	=96	=96	=96	=96	=96
*	*	*	*	*	*	*^	*
4BB-/	f	2d-\	f	(2f/	f	(4b-\	32b-/LLL	f
.	.	.	.	.	.	.	32bn/	.
.	.	.	.	.	.	.	32b-/	.
.	.	.	.	.	.	.	32bn/	.
.	.	.	.	.	.	.	32b-/	.
.	.	.	.	.	.	.	32bn/	.
.	.	.	.	.	.	.	32an/	.
.	.	.	.	.	.	.	32b-/JJJ	.
*	*	*	*	*	*	*v	*v	*
4B-\	.	.	.	.	.	8an\L	.
.	.	.	.	.	.	8b-\J)	.
4E-\	.	4G-'/	.	4g-'/)	.	4cc-'\	.
4E-\	.	4G-'/	.	4e-'/	.	4cc-'\	.
=97	=97	=97	=97	=97	=97	=97	=97
4F\	.	4F/	.	(4d-/	.	(4b-\	.
4F\	.	4f\	.	4c/)	.	4an\)	.
4BB-/	.	4f\	.	4d-'/	.	4b-'\	.
4r	.	4r	.	4r	.	4r	.
=98	=98	=98	=98	=98	=98	=98	=98
4B-\	pp	(4F/	pp	2r	pp	(2.d-/	pp
4BB-/	.	8E-/L	.	.	.	.	.
.	.	8F/J)	.	.	.	.	.
4r	.	4G-'/	.	4g-/	.	.	.
4EE-/	.	4r	.	4g-\ 4ee-\	.	8e-/L	.
.	.	.	.	.	.	8d-/J)	.
=99	=99	=99	=99	=99	=99	=99	=99
4AA-/	.	(4E-/	.	2r	.	(2.c/	.
4A-\	.	8D-/L	.	.	.	.	.
.	.	8E-/J)	.	.	.	.	.
4r	.	4F'/	.	4f/	.	.	.
4D-\	.	4r	.	4f/ 4dd-/	.	8d-/L	.
.	.	.	.	.	.	8c/J)	.
=100	=100	=100	=100	=100	=100	=100	=100
4G-\	.	(4D-/	.	2r	.	(2.B-/	.
4GG-/	.	8C/L	.	.	.	.	.
.	.	8D-/J)	.	.	.	.	.
4GG-/	.	4E-'/	.	4b-\	.	.	.
4GG-/	.	4E-'/	.	4ee-\	.	4c/)	.
=101	=101	=101	=101	=101	=101	=101	=101
4FF/	.	4F/	.	4f/ 4cc/	.	4An/	.
4r	.	4r	.	4r	.	4r	.
2r	.	2r	.	2r	.	2r	.
=102	=102	=102	=102	=102	=102	=102	=102
4GG-/	.	(4D-/	.	2r	.	(2.B-/	.
4GG-/	.	8C/L	.	.	.	.	.
.	.	8D-/J)	.	.	.	.	.
4GG-/	.	4E-'/	.	4bb-\	.	.	.
4GG-/	.	4E-'/	.	4eee-\	.	4c/)	.
=103	=103	=103	=103	=103	=103	=103	=103
4FF/	.	4F/	.	4ccc\	.	4An/	.
4r	.	4r	.	4r	.	4r	.
2r	.	2r	.	2r	.	2r	.
=104	=104	=104	=104	=104	=104	=104	=104
1r	.	4G-/	.	(2.bb-\	.	4dd-\	.
.	.	4g-\	.	.	.	8cc\L	.
.	.	.	.	.	.	8dd-\J	.
.	.	4g-\	.	.	.	4ee-\	.
.	.	4g-\	.	4ccc\)	.	4ee-\	.
=105	=105	=105	=105	=105	=105	=105	=105
1r	.	4f\	.	4an\ 4aan\	.	4ff\	.
.	.	4r	.	4r	.	4r	.
.	.	2r	.	2r	.	2r	.
=106	=106	=106	=106	=106	=106	=106	=106
4GG-/	f	2B-/	f	2b-\	f	(4dd-\	f
4G-\	.	.	.	.	.	8cc\L	.
.	.	.	.	.	.	8dd-\J)	.
4GG-/	.	4B-/	.	4b-\	.	4ee-'\	.
4FF/	.	4An/	.	4c/ 4f/	.	4ff'\	.
=107	=107	=107	=107	=107	=107	=107	=107
4BB-/	.	4B-/	.	4B-/ 4f/	.	4b-'\	.
4r	.	4r	.	4r	.	4r	.
2r	.	2r	.	2r	.	2r	.
==	==	==	==	==	==	==	==
*-	*-	*-	*-	*-	*-	*-	*-
!!!ENC: Craig Stuart Sapp
!!!END: 2004/09/10/
